assets/Backhand index pointing up/Default/Flat/backhand_index_pointing_up_flat_default.svg

<svg width="32" height="32" viewBox="0 0 32 32" fill="none" xmlns="http://www.w3.org/2000/svg">
<path d="M11.4375 24.3125C9.71139 20.0968 5.73434 18.4737 4.85934 17.5675C3.98434 16.6612 3.88613 14.9733 4.85934 13.9375C6.11716 12.5987 7.42839 12.9428 8.95312 13.8437C9.46875 14.1484 11.1719 15.2812 11.1719 15.2812V5.03124C11.1719 2.92187 12.4337 1.98999 13.5937 1.98999C14.7537 1.98999 16.1562 3.15624 16.1562 5.03124L16.1562 8.99999C16.1562 8.99999 16.7675 7.68749 18.5644 7.68749C20.3612 7.68749 20.875 9.31249 20.875 9.31249C20.875 9.31249 21.2578 8.46094 22.9297 8.46094C24.5078 8.46094 25.1719 10.1094 25.1719 10.1094C25.1719 10.1094 25.7422 9.50781 27.1484 9.50781C28.2266 9.50781 30.125 11.0312 30.125 12.6719C30.125 19.7624 29.4233 29.99 20.03 29.99C17.54 30 13.1636 28.5282 11.4375 24.3125Z" fill="#FFC83D"/>
<path d="M12.1563 5.98438C12.1563 3.72255 12.6559 2.46731 13.0796 2.05127C12.0898 2.28963 11.1719 3.23216 11.1719 5.03125V13.9063C11.1822 14.4855 11.1875 15.0011 11.1875 15.3984C11.1875 16.1953 12.1563 16.2578 12.1563 15.3984L12.1563 5.98438Z" fill="#D67D00"/>
<path d="M16.1562 8.99999L16.1484 12.5156C16.1484 12.7918 16.3723 13.0156 16.6484 13.0156C16.9246 13.0156 17.1484 12.7918 17.1484 12.5156L17.1484 8.02396C16.4297 8.41284 16.1562 8.99999 16.1562 8.99999Z" fill="#D67D00"/>
<path d="M20.875 9.31252C20.875 9.31252 21.0853 8.84468 21.875 8.60254V11.5313C21.875 11.8074 21.6511 12.0313 21.375 12.0313C21.0989 12.0313 20.875 11.8074 20.875 11.5313L20.875 9.31252Z" fill="#D67D00"/>
<path d="M25.1719 10.1094C25.1719 10.1094 25.1693 10.1029 25.1641 10.0909V13.5C25.1641 13.7761 25.3879 14 25.6641 14C25.9402 14 26.1641 13.7761 26.1641 13.5L26.1641 9.62134C25.4693 9.79567 25.1719 10.1094 25.1719 10.1094Z" fill="#D67D00"/>
</svg>

<svg xmlns="http://www.w3.org/2000/svg" width="32" height="32" fill="none"><path fill="#FFC83D" d="M11.438 24.313c-1.727-4.216-5.704-5.84-6.579-6.745-.875-.907-.973-2.595 0-3.63 1.258-1.34 2.57-.995 4.094-.094.516.304 2.219 1.437 2.219 1.437V5.031c0-2.11 1.262-3.041 2.422-3.041 1.16 0 2.562 1.166 2.562 3.041V9s.611-1.313 2.408-1.313 2.311 1.625 2.311 1.625.383-.851 2.055-.851c1.578 0 2.242 1.648 2.242 1.648s.57-.601 1.976-.601c1.079 0 2.977 1.523 2.977 3.164 0 7.09-.702 17.318-10.095 17.318-2.49.01-6.866-1.462-8.593-5.677Z"/><path fill="#D67D00" d="M12.156 5.984c0-2.261.5-3.517.924-3.933-.99.239-1.908 1.181-1.908 2.98v8.875c.01.58.015 1.095.015 1.492 0 .797.97.86.97 0V5.984ZM16.156 9l-.008 3.516a.5.5 0 1 0 1 0V8.024c-.718.389-.992.976-.992.976ZM20.875 9.313s.21-.468 1-.71v2.928a.5.5 0 0 1-1 0V9.313ZM25.172 10.11l-.008-.02v3.41a.5.5 0 1 0 1 0V9.621c-.695.175-.992.488-.992.488Z"/></svg>
